X:1
T:Partition sans titre
C:Compositeur / Arrangeur
L:1/8
M:4/4
I:linebreak $
K:F
V:1 treble nm="Violon" snm="Vln."
V:1
 c2 d2 e2 |"F" f2 AB AGFA | c2 cd cAFA |[M:3/4]"Bb" B/A/B GB AF |"C" GA GF EF |[M:4/4] G2 | %6
[M:4/4] c2 d2 e2 |"F" f2 AB AGFA | c2 cd cAFA |[M:3/4]"Bb" B/A/B GB AF |"C" GA GF EG |1 %11
[M:4/4]"F" F2 :|2"F" F4 |:"F" f2 cf Acfa |"C" g2 eg cdef | g2 gg gefg |"F" a2 f2 fefg | %17
"F" a2 f2 fe d2 | c2 Ac FcAc |"Bb" B2 GB"F" AGFA |1"C" GFEG"F" F4 :|2"C" GFEG"F" F2 |] %22
